X: 3
T: Kerry, The
M: 2/4
L: 1/8
R: polka
K: Gmaj
|: BD ED | BD ED | G2 AB | AG ED |
BD ED | BD ED | G2 AB | AG G2 :|
|: Bd BA/A/ | AG ED | G2 AB | AG ED |
Bd BA/A/ | AG ED | G2 AB | AG G2 :|
